app/luts/clog2_to_rec709.cube
# Gamut : Cinema Gamut to BT.709
# Gamma : Canon Log to Wide DR
# Range : Full in / Full out
# Version : 1.1 2016/10/27
# Copyright(c) 2016 Canon Inc. All Rights Reserved.
LUT_3D_SIZE 9
# LUT_3D_INPUT_RANGE 0.0 1.0
0.000000 0.000000 0.000000
0.000000 0.000000 0.000000
0.239415 0.000000 0.000000
0.435959 0.000000 0.000000
0.599569 0.000000 0.000000
0.723804 0.000000 0.023259
0.819133 0.000000 0.049570
0.888614 0.000000 0.071215
0.939670 0.000000 0.087966
0.000000 0.000000 0.000000
0.000000 0.001387 0.000000
0.112194 0.039209 0.000000
0.389475 0.017237 0.000000
0.710837 0.000000 0.000000
0.959533 0.000000 0.000000
0.990496 0.000000 0.039657
0.990808 0.000000 0.089300
0.991066 0.000000 0.121876
0.000000 0.242506 0.000000
0.000000 0.247344 0.000000
0.233136 0.248373 0.000000
0.391156 0.261853 0.000000
0.602796 0.250193 0.000000
0.991939 0.158963 0.084801
0.993378 0.177403 0.204923
0.994176 0.193694 0.267435
0.994759 0.207753 0.305748
0.000000 0.443749 0.000000
0.000000 0.462161 0.000000
0.095233 0.492732 0.000000
0.431699 0.453166 0.000000
0.624278 0.447173 0.000000
0.865185 0.415298 0.000000
0.994783 0.371816 0.289467
0.996468 0.382637 0.403555
0.997220 0.395500 0.453218
0.000000 0.614098 0.000000
0.000000 0.637925 0.000000
0.000000 0.701683 0.000000
0.344620 0.651469 0.000000
0.599824 0.626859 0.000000
0.819846 0.601193 0.000000
0.993352 0.565782 0.080217
0.997615 0.548848 0.461652
0.999526 0.555382 0.570598
0.000000 0.746065 0.015332
0.000000 0.768176 0.000000
0.000000 0.843881 0.000000
0.000000 0.890311 0.000000
0.466858 0.800063 0.000000
0.730051 0.761564 0.000000
0.966817 0.720433 0.000000
0.997556 0.694617 0.342058
0.999624 0.688680 0.574076
0.000000 0.848990 0.028603
0.000000 0.870021 0.015895
0.000000 0.940459 0.013038
0.000000 0.992221 0.007005
0.123018 0.993594 0.061551
0.556671 0.916702 0.000000
0.831536 0.866655 0.000000
0.996128 0.810993 0.226295
0.999634 0.794832 0.555355
0.000000 0.922850 0.042711
0.000000 0.941591 0.040173
0.000000 0.992636 0.088049
0.153196 0.994912 0.213022
0.286302 0.996888 0.309205
0.400523 0.997949 0.355981
0.637046 0.993932 0.006333
0.905150 0.941982 0.000000
0.999633 0.877451 0.498030
0.000000 0.978213 0.060316
0.000000 0.992149 0.071821
0.148612 0.994851 0.231464
0.300031 0.997102 0.362128
0.429369 0.999026 0.469923
0.534114 0.999647 0.548974
0.622882 0.999696 0.594115
0.775780 0.998588 0.381102
0.958164 0.995766 0.051315
0.000000 0.000000 0.000000
0.001638 0.000000 0.000000
0.204808 0.000000 0.117767
0.386669 0.000000 0.181088
0.549485 0.000000 0.209363
0.684227 0.000000 0.206228
0.812508 0.000000 0.135510
0.893731 0.000000 0.122582
0.950510 0.000000 0.118965
0.000000 0.000793 0.000000
0.000000 0.000000 0.000000
0.390652 0.000000 0.025598
0.653838 0.000000 0.052457
0.817007 0.000000 0.079691
0.939277 0.000000 0.101130
0.990476 0.000000 0.121100
0.990842 0.000000 0.138665
0.991132 0.000000 0.151861
0.000000 0.241622 0.032055
0.000000 0.267699 0.000000
0.240885 0.252776 0.000000
0.450987 0.250774 0.000000
0.848201 0.190230 0.000000
0.992096 0.155104 0.189005
0.993449 0.178045 0.264789
0.994235 0.196628 0.304629
0.994823 0.212056 0.329374
0.000000 0.443917 0.042664
0.000000 0.468868 0.000000
0.022139 0.521166 0.000000
0.438371 0.457889 0.000000
0.660749 0.443038 0.000000
0.938281 0.399822 0.000000
0.995013 0.373067 0.342824
0.996556 0.386471 0.431744
0.997303 0.400328 0.471585
0.000000 0.616105 0.044929
0.000000 0.639427 0.009527
0.000000 0.717804 0.000000
0.318094 0.666060 0.000000
0.605805 0.631788 0.000000
0.844218 0.600655 0.000000
0.994132 0.567062 0.131675
0.997957 0.552136 0.494507
0.999532 0.560612 0.585209
0.000000 0.749737 0.045389
0.000000 0.771663 0.023811
0.000000 0.846936 0.000000
0.000000 0.907874 0.000000
0.456156 0.809951 0.000000
0.735615 0.766616 0.000000
0.982366 0.722176 0.000000
0.997975 0.698503 0.368761
0.999642 0.693162 0.596059
0.000000 0.853842 0.046972
0.000000 0.874804 0.034949
0.000000 0.944694 0.034527
0.000000 0.992395 0.039072
0.133312 0.994040 0.093257
0.553331 0.924115 0.000000
0.836863 0.871778 0.000000
0.996551 0.814522 0.256521
0.999647 0.799775 0.572788
0.000000 0.928009 0.054527
0.000000 0.946726 0.052218
0.013929 0.992849 0.111148
0.167488 0.995128 0.235233
0.300718 0.997105 0.331037
0.414374 0.998277 0.378384
0.645896 0.994366 0.042398
0.910202 0.946898 0.000000
0.999650 0.881773 0.521610
0.000000 0.983736 0.068239
0.000000 0.992378 0.091073
0.164088 0.995083 0.250030
0.315671 0.997336 0.380195
0.445100 0.999261 0.487709
0.550374 0.999659 0.567404
0.638752 0.999710 0.613678
0.786087 0.998986 0.413245
0.960619 0.996281 0.105411
0.000000 0.000000 0.206042
0.054880 0.000000 0.082594
0.251012 0.000000 0.226830
0.429393 0.000000 0.300399
0.591027 0.000000 0.332153
0.724418 0.000000 0.332998
0.834014 0.000000 0.317301
0.919000 0.000000 0.286947
0.990364 0.000000 0.180830
0.000000 0.011750 0.126176
0.021110 0.000000 0.385082
0.419678 0.000000 0.388252
0.619110 0.000000 0.399833
0.791139 0.000000 0.400975
0.926621 0.000000 0.386443
0.990518 0.000000 0.353083
0.990996 0.000000 0.302836
0.991470 0.005136 0.206004
0.000000 0.246392 0.229926
0.000000 0.263954 0.251571
0.244882 0.244882 0.244882
0.578713 0.204564 0.260094
0.913694 0.138035 0.440436
0.992316 0.151345 0.470703
0.993648 0.183591 0.454382
0.994467 0.213529 0.381650
0.995084 0.232348 0.372713
0.000000 0.446373 0.263451
0.000000 0.467259 0.252172
0.000000 0.542814 0.225509
0.445207 0.469000 0.048264
0.712684 0.430586 0.148874
0.950015 0.401652 0.130268
0.995418 0.388873 0.430175
0.996876 0.406007 0.482400
0.997626 0.421404 0.506970
0.000000 0.634025 0.112534
0.000000 0.656776 0.082787
0.000000 0.733745 0.042108
0.277859 0.702765 0.000000
0.625002 0.650826 0.000000
0.895662 0.610107 0.000000
0.995496 0.582623 0.218627
0.998509 0.571807 0.543141
0.999553 0.582236 0.616055
0.000000 0.770650 0.083350
0.000000 0.792414 0.063373
0.000000 0.867258 0.043749
0.000000 0.932819 0.000000
0.450401 0.836406 0.000000
0.754625 0.785710 0.000000
0.993124 0.736438 0.026149
0.998893 0.717181 0.426156
0.999615 0.712007 0.654585
0.000000 0.876321 0.069411
0.000000 0.897236 0.057858
0.000000 0.965179 0.062766
0.040128 0.993229 0.113090
0.186757 0.995158 0.169925
0.559886 0.946064 0.000000
0.855679 0.890929 0.000000
0.997689 0.830927 0.335787
0.999686 0.819600 0.621399
0.000000 0.949502 0.072167
0.000000 0.968206 0.069984
0.072764 0.993728 0.174308
0.226439 0.996008 0.298039
0.359395 0.997982 0.394684
0.471342 0.999275 0.445866
0.685014 0.995798 0.158149
0.928390 0.965163 0.000000
0.999704 0.898963 0.596283
0.000000 0.992530 0.109873
0.042215 0.993275 0.150157
0.224429 0.995982 0.308562
0.376083 0.998235 0.438510
0.506789 0.999627 0.547547
0.612391 0.999706 0.629436
0.699199 0.999760 0.680308
0.827467 0.999711 0.529336
0.970210 0.998173 0.303544
0.000000 0.000000 0.368548
0.089614 0.000000 0.183683
0.281451 0.000000 0.340566
0.457424 0.000000 0.421225
0.619127 0.000000 0.452775
0.754822 0.000000 0.446835
0.867453 0.000000 0.422202
0.950629 0.000000 0.386059
0.990455 0.000000 0.339564
0.000000 0.010468 0.342240
0.039145 0.000000 0.707134
0.425776 0.000000 0.573661
0.626446 0.000000 0.581596
0.802605 0.000000 0.570577
0.942331 0.000000 0.537311
0.990670 0.000000 0.475176
0.991163 0.000000 0.415501
0.991558 0.009500 0.365880
0.000000 0.253525 0.362633
0.000000 0.265619 0.438448
0.281752 0.220324 0.582941
0.674680 0.159403 0.628226
0.990638 0.108095 0.713803
0.992636 0.156242 0.624620
0.993849 0.192183 0.572036
0.994621 0.218534 0.534979
0.995232 0.239636 0.503443
0.000000 0.450294 0.427975
0.000000 0.468017 0.448032
0.000000 0.534123 0.514965
0.448247 0.448247 0.448247
0.729662 0.415112 0.455525
0.985689 0.374275 0.499784
0.995747 0.389081 0.630513
0.997070 0.412137 0.624468
0.997827 0.431630 0.608446
0.000000 0.623208 0.423051
0.000000 0.642731 0.425280
0.000000 0.712584 0.455095
0.092227 0.736804 0.346124
0.614887 0.637796 0.295558
0.827280 0.600891 0.429348
0.992110 0.577282 0.484878
0.998941 0.580166 0.662427
0.999569 0.598442 0.658847
0.000000 0.781484 0.179397
0.000000 0.802731 0.164541
0.000000 0.876351 0.157044
0.000000 0.939391 0.104544
0.401650 0.871428 0.000000
0.770257 0.801593 0.000000
0.994899 0.743526 0.154077
0.999574 0.730635 0.494242
0.999652 0.727649 0.702890
0.000000 0.892303 0.114468
0.000000 0.912023 0.106516
0.000000 0.979392 0.115083
0.079696 0.993836 0.193931
0.225408 0.995979 0.251345
0.552534 0.967987 0.000000
0.871332 0.906428 0.000000
0.998790 0.843410 0.412254
0.999722 0.835563 0.666536
0.000000 0.966114 0.099488
0.000000 0.984773 0.097736
0.118993 0.994422 0.234667
0.273224 0.996708 0.356701
0.406321 0.998683 0.452921
0.518196 0.999627 0.507774
0.715638 0.997042 0.259013
0.943633 0.980274 0.000000
0.999750 0.912967 0.660792
0.040523 0.993256 0.163075
0.090840 0.994002 0.203145
0.273484 0.996713 0.360238
0.425427 0.998970 0.489303
0.558058 0.999666 0.599558
0.663409 0.999745 0.682189
0.748990 0.999802 0.736645
0.862259 0.999772 0.629650
0.978107 0.999745 0.468086
0.000000 0.000000 0.496027
0.086650 0.000000 0.364827
0.297430 0.000000 0.465932
0.471139 0.000000 0.553256
0.632470 0.000000 0.585901
0.770456 0.000000 0.573219
0.887034 0.000000 0.536961
0.972273 0.000000 0.486452
0.990621 0.000000 0.420853
0.000000 0.000000 0.719447
0.054330 0.000000 0.978017
0.422022 0.000000 0.757131
0.623712 0.000000 0.762064
0.801731 0.000000 0.745570
0.946138 0.000000 0.696161
0.990764 0.000000 0.599642
0.991302 0.000000 0.512689
0.991719 0.018386 0.449803
0.000000 0.216589 0.900828
0.051390 0.192209 0.990415
0.479485 0.137813 0.990461
0.794378 0.104647 0.990582
0.991520 0.102889 0.935196
0.993070 0.158463 0.773756
0.994096 0.198716 0.679018
0.994810 0.227585 0.617180
0.995742 0.249817 0.573516
0.000000 0.450701 0.596353
0.000000 0.465470 0.645681
0.000000 0.523976 0.787890
0.472990 0.429132 0.737159
0.806221 0.379138 0.758854
0.993686 0.360654 0.783573
0.996230 0.395907 0.733890
0.997312 0.421993 0.698538
0.998019 0.442468 0.672937
0.000000 0.623195 0.595592
0.000000 0.641026 0.614588
0.000000 0.707244 0.680404
0.000000 0.749989 0.724901
0.620664 0.620664 0.620664
0.839044 0.595055 0.624937
0.993181 0.577297 0.653993
0.999404 0.588303 0.752887
0.999580 0.606413 0.752266
0.000000 0.762569 0.539177
0.000000 0.781561 0.546667
0.000000 0.850249 0.588020
0.000000 0.908151 0.606796
0.338079 0.851288 0.492444
0.749286 0.768212 0.498167
0.913380 0.738590 0.615424
0.994801 0.730833 0.678749
0.999677 0.736006 0.792451
0.000000 0.897183 0.238543
0.000000 0.916117 0.235162
0.000000 0.982477 0.252668
0.091869 0.994068 0.328213
0.239561 0.996224 0.379655
0.508687 0.993583 0.006985
0.883752 0.919382 0.000000
0.999624 0.850971 0.507313
0.999761 0.847895 0.716677
0.000000 0.977466 0.151049
0.000000 0.992178 0.158016
0.152448 0.994933 0.303511
0.308207 0.997236 0.420881
0.442281 0.999221 0.514124
0.555210 0.999663 0.570850
0.737652 0.998225 0.354886
0.956737 0.993031 0.000000
0.999789 0.924733 0.716534
0.079001 0.993835 0.216450
0.129525 0.994583 0.255888
0.313104 0.997305 0.410125
0.465763 0.999570 0.537000
0.600411 0.999699 0.646940
0.705877 0.999778 0.729234
0.790650 0.999838 0.786031
0.891806 0.999823 0.714550
0.984102 0.999827 0.622037
0.000000 0.000000 0.588807
0.061919 0.000000 0.571328
0.294652 0.000000 0.607791
0.468531 0.000000 0.694614
0.628860 0.000000 0.730211
0.768228 0.000000 0.713456
0.888466 0.000000 0.666423
0.978171 0.000000 0.599564
0.990704 0.000000 0.511032
0.000000 0.000000 0.990483
0.063984 0.000000 0.990494
0.386178 0.000000 0.979526
0.604196 0.000000 0.941223
0.783035 0.000000 0.925174
0.934007 0.000000 0.869380
0.990756 0.000000 0.745387
0.991352 0.000000 0.623009
0.991809 0.023221 0.535315
0.089712 0.174429 0.991761
0.166824 0.171244 0.991870
0.316790 0.199481 0.992333
0.670304 0.154837 0.992436
0.855322 0.151049 0.992857
0.993507 0.155051 0.939944
0.994360 0.199960 0.799597
0.995000 0.231972 0.706847
0.995858 0.256306 0.642573
0.000000 0.434040 0.895080
0.000000 0.437935 0.990846
0.126821 0.459291 0.992583
0.621216 0.372746 0.992916
0.850417 0.355757 0.994003
0.995337 0.356381 0.954721
0.996715 0.398533 0.840128
0.997562 0.427871 0.773260
0.998209 0.450214 0.729324
0.000000 0.616600 0.794606
0.000000 0.632552 0.832203
0.000000 0.693625 0.933840
0.064963 0.710502 0.993044
0.638514 0.606168 0.845384
0.906322 0.564168 0.866473
0.996147 0.573386 0.817680
0.999550 0.594717 0.822598
0.999592 0.614995 0.800896
0.000000 0.757264 0.725408
0.000000 0.775163 0.743717
0.000000 0.841463 0.808735
0.000000 0.896340 0.863960
0.192023 0.872922 0.841897
0.754343 0.754343 0.754343
0.921881 0.735205 0.757604
0.995751 0.733816 0.780080
0.999700 0.744079 0.846094
0.000000 0.871443 0.627198
0.000000 0.890154 0.637467
0.000000 0.953920 0.684154
0.007631 0.993062 0.719902
0.164133 0.995282 0.744776
0.536138 0.934181 0.648255
0.854414 0.869351 0.660268
0.973470 0.846718 0.760135
0.998603 0.850949 0.823515
0.000000 0.976207 0.295895
0.000000 0.992198 0.301759
0.155718 0.995028 0.426629
0.316914 0.997390 0.527402
0.455245 0.999419 0.607668
0.571060 0.999678 0.657700
0.739281 0.999653 0.469627
0.961988 0.996018 0.076093
0.999830 0.932033 0.777782
0.102279 0.994197 0.277999
0.153330 0.994951 0.315830
0.339039 0.997697 0.463557
0.494379 0.999620 0.585915
0.630573 0.999722 0.691569
0.736886 0.999802 0.771364
0.821678 0.999865 0.828080
0.913108 0.999865 0.785090
0.990171 0.999881 0.737316
0.000941 0.000000 0.659531
0.051759 0.000000 0.705511
0.198616 0.000000 0.982040
0.450244 0.000000 0.852728
0.611268 0.000000 0.886275
0.751231 0.000000 0.867770
0.874143 0.000000 0.812861
0.969622 0.000000 0.730911
0.990711 0.000000 0.616717
0.012028 0.000000 0.990593
0.071451 0.000000 0.990640
0.183710 0.004550 0.991350
0.505994 0.000000 0.990797
0.677502 0.000000 0.990840
0.853326 0.000000 0.990666
0.990644 0.000000 0.923593
0.991310 0.000000 0.757772
0.991822 0.023500 0.636780
0.161434 0.163567 0.992435
0.210769 0.168635 0.992581
0.306495 0.212980 0.993189
0.576333 0.193198 0.993418
0.733036 0.197835 0.993752
0.880565 0.193678 0.994146
0.994628 0.195898 0.943308
0.995190 0.231624 0.813998
0.995905 0.258744 0.722541
0.257204 0.338288 0.994174
0.300197 0.345234 0.994384
0.388154 0.391870 0.995194
0.568401 0.398694 0.995665
0.767715 0.390669 0.995957
0.898389 0.391508 0.996497
0.997127 0.396941 0.958957
0.997809 0.429665 0.859026
0.998385 0.454352 0.792086
0.050783 0.572226 0.992588
0.103849 0.576113 0.993448
0.224646 0.612865 0.995452
0.360176 0.633023 0.995525
0.686135 0.587420 0.995137
0.896183 0.564459 0.997707
0.999284 0.567439 0.971617
0.999570 0.597978 0.894494
0.999603 0.620533 0.850270
0.000000 0.743366 0.944967
0.000000 0.758922 0.973174
0.069603 0.792849 0.993302
0.212965 0.810460 0.995531
0.386582 0.809829 0.998248
0.767756 0.743401 0.927500
0.970730 0.712790 0.940069
0.998792 0.733177 0.881728
0.999719 0.750148 0.890185
0.000000 0.861845 0.826535
0.000000 0.879787 0.844431
0.000000 0.942695 0.906125
0.000000 0.992602 0.956176
0.125831 0.994855 0.966048
0.409536 0.954213 0.926872
0.858608 0.858608 0.858608
0.979845 0.845151 0.861153
0.999405 0.855497 0.880372
0.000000 0.948325 0.691897
0.000000 0.965465 0.703908
0.081944 0.994128 0.757034
0.261281 0.996678 0.802529
0.413950 0.998850 0.839170
0.537104 0.999667 0.862063
0.698618 0.991061 0.778738
0.932219 0.943085 0.792358
0.998621 0.931851 0.887410
0.093976 0.994132 0.407360
0.146965 0.994907 0.439273
0.340053 0.997734 0.564467
0.501788 0.999630 0.668266
0.643476 0.999735 0.757714
0.753883 0.999817 0.825429
0.841107 0.999881 0.874973
0.926168 0.999902 0.850531
0.992637 0.999924 0.833892
0.009374 0.000000 0.711530
0.045703 0.000000 0.800175
0.133888 0.000000 0.990575
0.346160 0.000000 0.990570
0.546524 0.000000 0.990468
0.693199 0.000000 0.990435
0.839528 0.000000 0.966861
0.947169 0.000000 0.881487
0.990627 0.000000 0.748587
0.038094 0.000000 0.990598
0.076947 0.000000 0.990748
0.156112 0.020490 0.991547
0.280067 0.044044 0.992058
0.557165 0.012976 0.991569
0.702984 0.009370 0.991538
0.863754 0.000000 0.991285
0.991166 0.000000 0.926034
0.991742 0.018231 0.766045
0.199355 0.160012 0.992819
0.233078 0.169718 0.992987
0.306556 0.220670 0.993668
0.403018 0.252395 0.994193
0.641647 0.232700 0.994330
0.764279 0.235949 0.994673
0.894025 0.228303 0.995375
0.995351 0.226030 0.945768
0.995869 0.256390 0.822804
0.322662 0.326520 0.994827
0.352462 0.337389 0.995038
0.422629 0.389309 0.995877
0.501487 0.426250 0.996565
0.703695 0.417375 0.996765
0.811603 0.424993 0.997180
0.916723 0.424696 0.997606
0.998032 0.427014 0.961456
0.998541 0.454317 0.868802
0.403170 0.474817 0.996695
0.431259 0.486189 0.996954
0.502828 0.537678 0.997940
0.574002 0.576888 0.998784
0.733279 0.580754 0.999175
0.845228 0.587178 0.999530
0.933626 0.591891 0.999559
0.999585 0.597697 0.974070
0.999613 0.622630 0.906304
0.224721 0.661662 0.995503
0.262391 0.670149 0.996122
0.369388 0.711026 0.997903
0.466980 0.742304 0.999534
0.573688 0.761828 0.999623
0.794140 0.736233 0.997646
0.930746 0.726420 0.999616
0.999697 0.730508 0.982332
0.999733 0.753439 0.934373
0.072970 0.811248 0.993401
0.118540 0.817379 0.994105
0.266457 0.846038 0.996418
0.393342 0.868572 0.998404
0.510241 0.884955 0.999601
0.638709 0.886494 0.999697
0.868264 0.850843 0.983918
0.995661 0.836554 0.976567
0.999707 0.857597 0.935503
0.000000 0.936016 0.898607
0.000000 0.952643 0.915143
0.041178 0.993673 0.958422
0.232139 0.996337 0.968556
0.393971 0.998594 0.977362
0.521816 0.999665 0.983932
0.639872 0.996193 0.977716
0.935440 0.935440 0.935440
0.999075 0.934008 0.941536
0.010077 0.993108 0.741383
0.068753 0.993942 0.755962
0.284248 0.997006 0.812829
0.463136 0.999550 0.859703
0.621488 0.999729 0.899357
0.744290 0.999817 0.930513
0.840858 0.999886 0.952491
0.921208 0.999865 0.942332
0.993247 0.999509 0.913036
0.015379 0.000000 0.754739
0.042673 0.000000 0.869988
0.111135 0.000000 0.990797
0.184921 0.012099 0.991483
0.410065 0.000000 0.991251
0.566136 0.000000 0.991168
0.701361 0.000000 0.991038
0.863124 0.000000 0.990641
0.990450 0.000000 0.919910
0.053495 0.000000 0.990628
0.080823 0.000000 0.990836
0.146027 0.029613 0.991761
0.217045 0.068906 0.992240
0.417479 0.060565 0.992371
0.584212 0.050753 0.992232
0.718896 0.041724 0.992103
0.869530 0.019820 0.991758
0.991577 0.007912 0.929643
0.220694 0.159788 0.993094
0.245440 0.172161 0.993276
0.308610 0.226174 0.993994
0.373195 0.267365 0.994611
0.486642 0.284856 0.994993
0.676271 0.268119 0.996035
0.782755 0.267459 0.996038
0.900748 0.255243 0.995843
0.995763 0.249856 0.948723
0.354705 0.323105 0.995195
0.377461 0.336066 0.995415
0.438843 0.390596 0.996274
0.498417 0.433265 0.997010
0.578372 0.460694 0.997564
0.746791 0.450358 0.997657
0.833551 0.455524 0.998026
0.925237 0.451077 0.998344
0.998681 0.450811 0.964014
0.459972 0.464023 0.997253
0.481364 0.477386 0.997508
0.542930 0.531849 0.998486
0.599567 0.575381 0.999327
0.662544 0.607891 0.999546
0.802564 0.606004 0.999558
0.874763 0.615534 0.999582
0.944544 0.617628 0.999601
0.999621 0.621786 0.975531
0.519244 0.579915 0.998907
0.540908 0.593194 0.999193
0.606801 0.646433 0.999560
0.665004 0.689579 0.999611
0.721917 0.723909 0.999654
0.832432 0.730793 0.999674
0.903118 0.740772 0.999699
0.958755 0.747070 0.999722
0.999743 0.754618 0.983556
0.370925 0.728367 0.997939
0.402273 0.738744 0.998459
0.504712 0.781043 0.999571
0.593102 0.815213 0.999647
0.672826 0.842761 0.999714
0.748684 0.859942 0.999778
0.882478 0.851178 0.999641
0.956285 0.852065 0.999757
0.999841 0.858169 0.990339
0.238179 0.844856 0.995984
0.279777 0.852173 0.996632
0.424256 0.881860 0.998895
0.547429 0.905623 0.999636
0.654692 0.924982 0.999721
0.742002 0.938759 0.999790
0.827794 0.944244 0.999855
0.941672 0.933362 0.998558
0.999764 0.934840 0.992164
0.000000 0.992566 0.948870
0.024456 0.993436 0.952305
0.254426 0.996646 0.965106
0.444211 0.999295 0.978850
0.612833 0.999729 0.985730
0.744448 0.999821 0.990892
0.847117 0.999893 0.994880
0.923591 0.999898 0.995882
0.996331 0.996331 0.996331
