app/luts/clog2_to_rec709.cube
# Gamut : Cinema Gamut to BT.709
# Gamma : Canon Log to Wide DR
# Range : Full in / Full out
# Version : 1.1 2016/10/27
# Copyright(c) 2016 Canon Inc. All Rights Reserved.
LUT_3D_SIZE 33
# LUT_3D_INPUT_RANGE 0.0 1.0
0.000000 0.000000 0.000000
0.000000 0.000000 0.000000
0.000000 0.000000 0.000000
0.000000 0.000000 0.000000
0.000000 0.000000 0.000000
0.070314 0.000000 0.000000
0.133295 0.000000 0.000000
0.188067 0.000000 0.000000
0.239415 0.000000 0.000000
0.289164 0.000000 0.000000
0.338208 0.000000 0.000000
0.387033 0.000000 0.000000
0.435959 0.000000 0.000000
0.482698 0.000000 0.000000
0.524712 0.000000 0.000000
0.563433 0.000000 0.000000
0.599569 0.000000 0.000000
0.633505 0.000000 0.002345
0.665465 0.000000 0.009297
0.695540 0.000000 0.016305
0.723804 0.000000 0.023259
0.750271 0.000000 0.030133
0.774967 0.000000 0.036842
0.797912 0.000000 0.043331
0.819133 0.000000 0.049570
0.838706 0.000000 0.055475
0.856707 0.000000 0.061065
0.873283 0.000000 0.066301
0.888614 0.000000 0.071215
0.902673 0.000000 0.075829
0.915204 0.000000 0.079683
0.927290 0.000000 0.084010
0.939670 0.000000 0.087966
0.000000 0.000000 0.000000
0.000000 0.000000 0.000000
0.000000 0.000000 0.000000
0.000000 0.000000 0.000000
0.000000 0.000000 0.000000
0.041564 0.000000 0.000000
0.098377 0.000000 0.000000
0.152768 0.000000 0.000000
0.208314 0.000000 0.000000
0.266815 0.000000 0.000000
0.329385 0.000000 0.000000
0.396856 0.000000 0.000000
0.446158 0.000000 0.000000
0.492574 0.000000 0.000000
0.534147 0.000000 0.000000
0.572337 0.000000 0.000000
0.607879 0.000000 0.000000
0.641215 0.000000 0.000000
0.672559 0.000000 0.000000
0.702042 0.000000 0.000000
0.729717 0.000000 0.005848
0.755639 0.000000 0.014326
0.779804 0.000000 0.022599
0.802263 0.000000 0.030518
0.823032 0.000000 0.038089
0.842181 0.000000 0.045241
0.859797 0.000000 0.051966
0.876016 0.000000 0.058254
0.891036 0.000000 0.064085
0.904600 0.000000 0.069569
0.916904 0.000000 0.074169
0.928780 0.000000 0.079182
0.940978 0.000000 0.083734
0.000000 0.000000 0.000000
0.000000 0.000000 0.000000
0.000000 0.000000 0.000000
0.000000 0.000000 0.000000
0.000000 0.000000 0.000000
0.011666 0.000000 0.000000
0.055856 0.000000 0.000000
0.099613 0.000000 0.000000
0.145590 0.000000 0.000000
0.195066 0.000000 0.000000
0.248982 0.000000 0.000000
0.308071 0.000000 0.000000
0.373145 0.000000 0.000000
0.442745 0.000000 0.000000
0.514474 0.000000 0.000000
0.581504 0.000000 0.000000
0.616226 0.000000 0.000000
0.648773 0.000000 0.000000
0.679376 0.000000 0.000000
0.708163 0.000000 0.000000
0.735203 0.000000 0.000000
0.760544 0.000000 0.000000
0.784182 0.000000 0.009707
0.806158 0.000000 0.019049
0.826489 0.000000 0.027910
0.845236 0.000000 0.036245
0.862502 0.000000 0.044002
0.878401 0.000000 0.051232
0.893134 0.000000 0.057907
0.906261 0.000000 0.064171
0.918368 0.000000 0.069422
0.930063 0.000000 0.075026
0.942101 0.000000 0.080104
0.000000 0.000000 0.000000
0.000000 0.000000 0.000000
0.000000 0.000000 0.000000
0.000000 0.000000 0.000000
0.000000 0.000000 0.000000
0.000000 0.000000 0.000000
0.023091 0.000000 0.000000
0.059992 0.000000 0.000000
0.099883 0.000000 0.000000
0.143586 0.000000 0.000000
0.191982 0.000000 0.000000
0.245699 0.000000 0.000000
0.305380 0.000000 0.000000
0.369818 0.000000 0.000000
0.437063 0.000000 0.000000
0.508105 0.000000 0.000000
0.583650 0.000000 0.000000
0.656223 0.000000 0.000000
0.685933 0.000000 0.000000
0.713945 0.000000 0.000000
0.740305 0.000000 0.000000
0.765030 0.000000 0.000000
0.788136 0.000000 0.000000
0.809631 0.000000 0.008821
0.829545 0.000000 0.018911
0.847931 0.000000 0.028309
0.864863 0.000000 0.037049
0.880476 0.000000 0.045123
0.894947 0.000000 0.052567
0.907699 0.000000 0.059502
0.919624 0.000000 0.065347
0.931166 0.000000 0.071457
0.943061 0.000000 0.077000
0.000000 0.000000 0.000000
0.000000 0.000000 0.000000
0.000000 0.000000 0.000000
0.000000 0.000000 0.000000
0.000000 0.001387 0.000000
0.023444 0.014262 0.000000
0.051364 0.025017 0.000000
0.079911 0.033158 0.000000
0.112194 0.039209 0.000000
0.157569 0.040936 0.000000
0.252095 0.027892 0.000000
0.319104 0.023020 0.000000
0.389475 0.017237 0.000000
0.464152 0.009558 0.000000
0.541861 0.000000 0.000000
0.623834 0.000000 0.000000
0.710837 0.000000 0.000000
0.803355 0.000000 0.000000
0.901772 0.000000 0.000000
0.937608 0.000000 0.000000
0.959533 0.000000 0.000000
0.980253 0.000000 0.000000
0.990304 0.000000 0.005380
0.990403 0.000000 0.023468
0.990496 0.000000 0.039657
0.990583 0.000000 0.054193
0.990663 0.000000 0.067203
0.990738 0.000000 0.078851
0.990808 0.000000 0.089300
0.990874 0.000000 0.098728
0.990939 0.000000 0.106643
0.991001 0.000000 0.114624
0.991066 0.000000 0.121876
0.000000 0.071272 0.000000
0.000000 0.071069 0.000000
0.000000 0.066753 0.000000
0.000000 0.061918 0.000000
0.002462 0.071406 0.000000
0.064420 0.074522 0.000000
0.096758 0.083964 0.000000
0.127211 0.091538 0.000000
0.158568 0.097865 0.000000
0.192452 0.103008 0.000000
0.230940 0.106621 0.000000
0.278330 0.107581 0.000000
0.398419 0.087019 0.000000
0.519983 0.065403 0.000000
0.618729 0.049187 0.000000
0.717797 0.031911 0.000000
0.820522 0.012798 0.000000
0.925690 0.000000 0.000000
0.990506 0.000000 0.000000
0.990866 0.000000 0.000000
0.991128 0.000000 0.009037
0.991370 0.000193 0.033550
0.991473 0.005991 0.055246
0.991570 0.011494 0.074498
0.991661 0.016678 0.091607
0.991747 0.021530 0.106826
0.991826 0.026053 0.120388
0.991900 0.030267 0.132474
0.991970 0.034208 0.143287
0.992035 0.037937 0.152991
0.992099 0.041594 0.161174
0.992162 0.045158 0.169323
0.992227 0.048854 0.176747
0.000000 0.134884 0.000000
0.000000 0.135658 0.000000
0.000000 0.130324 0.000000
0.000000 0.124668 0.000000
0.001571 0.135771 0.000000
0.086387 0.132093 0.000000
0.126929 0.139096 0.000000
0.160843 0.145642 0.000000
0.193994 0.151435 0.000000
0.228282 0.156458 0.000000
0.264970 0.160606 0.000000
0.305514 0.163601 0.000000
0.352142 0.164876 0.000000
0.408599 0.162614 0.000000
0.498966 0.148888 0.000000
0.723961 0.094179 0.000000
0.854110 0.066914 0.000000
0.973739 0.041820 0.000000
0.990998 0.042912 0.000000
0.991141 0.048687 0.013838
0.991465 0.054472 0.045759
0.991756 0.060182 0.073145
0.992021 0.065722 0.096915
0.992258 0.071031 0.117681
0.992464 0.076060 0.135984
0.992648 0.080791 0.152121
0.992857 0.085205 0.166372
0.992930 0.089360 0.179048
0.992999 0.093256 0.190313
0.993064 0.096947 0.200386
0.993127 0.100572 0.208899
0.993189 0.104111 0.217293
0.993254 0.107787 0.224921
0.000000 0.190345 0.000000
0.000000 0.192133 0.000000
0.000000 0.186771 0.000000
0.000000 0.180860 0.000000
0.000000 0.192826 0.000000
0.046642 0.199841 0.000000
0.142234 0.190480 0.000000
0.181633 0.195395 0.000000
0.217451 0.200396 0.000000
0.253066 0.205024 0.000000
0.290049 0.209085 0.000000
0.329515 0.212400 0.000000
0.372647 0.214715 0.000000
0.420272 0.215077 0.000000
0.474060 0.212226 0.000000
0.541096 0.204471 0.000000
0.686489 0.172675 0.000000
0.944856 0.106417 0.000000
0.991155 0.098141 0.000000
0.991334 0.102735 0.031945
0.991743 0.107797 0.070782
0.992096 0.113033 0.102683
0.992408 0.118244 0.129572
0.992687 0.123313 0.152592
0.992927 0.128166 0.172535
0.993135 0.132762 0.189931
0.993321 0.137086 0.205153
0.993489 0.141138 0.218566
0.993643 0.144950 0.230413
0.993787 0.148570 0.240958
0.993924 0.152131 0.249885
0.994087 0.155610 0.258578
0.994151 0.159258 0.266480
0.000000 0.242506 0.000000
0.000000 0.244340 0.000000
0.000000 0.240550 0.000000
0.000000 0.234649 0.000000
0.000000 0.247344 0.000000
0.025936 0.258636 0.000000
0.140775 0.243554 0.000000
0.193004 0.244655 0.000000
0.233136 0.248373 0.000000
0.271018 0.252328 0.000000
0.309161 0.256044 0.000000
0.348871 0.259287 0.000000
0.391156 0.261853 0.000000
0.436343 0.262940 0.000000
0.484775 0.261681 0.000000
0.538812 0.257790 0.000000
0.602796 0.250193 0.000000
0.689990 0.235058 0.000000
0.990528 0.155209 0.000000
0.992004 0.155287 0.030850
0.991939 0.158963 0.084801
0.992389 0.163369 0.124639
0.992767 0.168069 0.156399
0.993094 0.172792 0.182705
0.993378 0.177403 0.204923
0.993617 0.181821 0.223990
0.993824 0.186011 0.240474
0.994009 0.189963 0.254832
0.994176 0.193694 0.267435
0.994331 0.197252 0.278564
0.994477 0.200759 0.288000
0.994618 0.204207 0.297063
0.994759 0.207753 0.305748
0.000000 0.293194 0.000000
0.000000 0.295015 0.000000
0.000000 0.293328 0.000000
0.000000 0.287584 0.000000
0.000000 0.300933 0.000000
0.011821 0.314018 0.000000
0.062125 0.318119 0.000000
0.192968 0.295852 0.000000
0.241588 0.297047 0.000000
0.283161 0.299904 0.000000
0.323331 0.303018 0.000000
0.364082 0.305951 0.000000
0.406581 0.308454 0.000000
0.451081 0.309745 0.000000
0.497618 0.309049 0.000000
0.547613 0.306360 0.000000
0.602972 0.301327 0.000000
0.667010 0.293075 0.000000
0.747808 0.279259 0.000000
0.887875 0.247270 0.000000
0.992801 0.210751 0.076298
0.992588 0.213329 0.136198
0.993080 0.217077 0.177054
0.993479 0.221251 0.208588
0.993818 0.225505 0.234175
0.994100 0.229680 0.255525
0.994335 0.233695 0.273657
0.994539 0.237517 0.289244
0.994721 0.241152 0.302762
0.994887 0.244633 0.314619
0.995043 0.248078 0.324646
0.995192 0.251478 0.334157
0.995339 0.254989 0.343172
0.000000 0.343315 0.000000
0.000000 0.345092 0.000000
0.000000 0.345912 0.000000
0.000000 0.340395 0.000000
0.000000 0.354346 0.000000
0.000000 0.368635 0.000000
0.035080 0.376802 0.000000
0.154772 0.357849 0.000000
0.240844 0.347911 0.000000
0.289162 0.348763 0.000000
0.332620 0.350899 0.000000
0.375234 0.353279 0.000000
0.418702 0.355493 0.000000
0.463392 0.356729 0.000000
0.509366 0.356200 0.000000
0.557731 0.353995 0.000000
0.609704 0.349969 0.000000
0.666978 0.343727 0.000000
0.732299 0.334512 0.000000
0.811815 0.320523 0.000000
0.923518 0.296205 0.000000
0.993536 0.265521 0.118063
0.993279 0.266638 0.187188
0.993816 0.269737 0.228964
0.994233 0.273411 0.260068
0.994578 0.277225 0.284805
0.994854 0.281000 0.305191
0.995084 0.284654 0.322374
0.995284 0.288164 0.337065
0.995463 0.291554 0.349795
0.995628 0.294923 0.360539
0.995785 0.298269 0.370569
0.995939 0.301739 0.379969
0.000000 0.393393 0.000000
0.000000 0.395100 0.000000
0.000000 0.396861 0.000000
0.000000 0.393500 0.000000
0.000000 0.408000 0.000000
0.000000 0.423223 0.000000
0.014906 0.433417 0.000000
0.062176 0.435993 0.000000
0.221456 0.404293 0.000000
0.287093 0.399997 0.000000
0.336390 0.400398 0.000000
0.382050 0.401872 0.000000
0.427225 0.403579 0.000000
0.472846 0.404537 0.000000
0.519068 0.403934 0.000000
0.566948 0.401875 0.000000
0.617431 0.398291 0.000000
0.671621 0.392966 0.000000
0.731105 0.385486 0.000000
0.798353 0.375144 0.000000
0.878588 0.360397 0.000000
0.977959 0.338664 0.000000
0.994087 0.320902 0.148704
0.994011 0.319371 0.238137
0.994597 0.321824 0.280847
0.995031 0.325035 0.311302
0.995375 0.328450 0.335054
0.995643 0.331870 0.354430
0.995866 0.335221 0.370635
0.996062 0.338495 0.384468
0.996239 0.341736 0.396441
0.996404 0.345055 0.406717
0.996565 0.348478 0.416563
0.000000 0.443749 0.000000
0.000000 0.445368 0.000000
0.000000 0.446996 0.000000
0.000000 0.447136 0.000000
0.000000 0.462161 0.000000
0.000000 0.478151 0.000000
0.000000 0.489710 0.000000
0.032920 0.495607 0.000000
0.095233 0.492732 0.000000
0.270664 0.455799 0.000000
0.332763 0.452393 0.000000
0.383636 0.452318 0.000000
0.431699 0.453166 0.000000
0.479003 0.453624 0.000000
0.526149 0.452747 0.000000
0.574286 0.450611 0.000000
0.624278 0.447173 0.000000
0.677047 0.442271 0.000000
0.733672 0.435640 0.000000
0.795591 0.426882 0.000000
0.865185 0.415298 0.000000
0.942759 0.400296 0.000000
0.991685 0.388242 0.000000
0.993686 0.382292 0.120195
0.994783 0.371816 0.289467
0.995423 0.373644 0.333008
0.995871 0.376440 0.362594
0.996209 0.379508 0.385253
0.996468 0.382637 0.403555
0.996685 0.385761 0.418801
0.996876 0.388897 0.431774
0.997052 0.392102 0.443143
0.997220 0.395500 0.453218
0.000000 0.492036 0.000000
0.000000 0.493553 0.000000
0.000000 0.495043 0.000000
0.000000 0.496498 0.000000
0.000000 0.514395 0.000000
0.000000 0.531073 0.000000
0.000000 0.543700 0.000000
0.008974 0.551571 0.000000
0.052252 0.554354 0.000000
0.139321 0.543687 0.000000
0.315263 0.506441 0.000000
0.376620 0.503249 0.000000
0.429399 0.502696 0.000000
0.479340 0.502370 0.000000
0.528039 0.501031 0.000000
0.576947 0.498665 0.000000
0.627058 0.495192 0.000000
0.679200 0.490476 0.000000
0.734257 0.484312 0.000000
0.793223 0.476432 0.000000
0.857561 0.466410 0.000000
0.926939 0.453976 0.000000
0.991270 0.440562 0.000000
0.992814 0.437430 0.060438
0.994477 0.433225 0.165920
0.995558 0.421868 0.338768
0.996259 0.423092 0.383177
0.996718 0.425525 0.411778
0.997044 0.428308 0.433301
0.997294 0.431219 0.450560
0.997505 0.434216 0.464864
0.997694 0.437321 0.477180
0.997871 0.440645 0.487966
0.000000 0.535703 0.000000
0.000000 0.537103 0.000000
0.000000 0.538449 0.000000
0.000000 0.539739 0.000000
0.000000 0.560699 0.000000
0.000000 0.579351 0.000000
0.000000 0.592880 0.000000
0.000000 0.602187 0.000000
0.021302 0.607748 0.000000
0.072529 0.607736 0.000000
0.252406 0.569320 0.000000
0.355550 0.553707 0.000000
0.417265 0.550497 0.000000
0.471385 0.548929 0.000000
0.522440 0.546890 0.000000
0.572625 0.544145 0.000000
0.623237 0.540523 0.000000
0.675206 0.535858 0.000000
0.729307 0.529978 0.000000
0.786408 0.522652 0.000000
0.847515 0.513591 0.000000
0.912830 0.502531 0.000000
0.980433 0.489535 0.000000
0.992467 0.484527 0.032703
0.993885 0.481754 0.124722
0.995348 0.478402 0.217159
0.996287 0.467272 0.383239
0.997061 0.467891 0.428872
0.997525 0.470017 0.456504
0.997839 0.472587 0.476956
0.998081 0.475375 0.493232
0.998287 0.478345 0.506836
0.998475 0.481572 0.518553
0.000000 0.576150 0.000000
0.000000 0.577429 0.000000
0.000000 0.578636 0.000000
0.000000 0.579773 0.000000
0.000000 0.600537 0.000000
0.000000 0.623263 0.000000
0.000000 0.638591 0.000000
0.000000 0.649033 0.000000
0.000000 0.656441 0.000000
0.033749 0.660214 0.000000
0.093978 0.657365 0.000000
0.304432 0.609852 0.000000
0.393039 0.598649 0.000000
0.455116 0.594716 0.000000
0.510067 0.591518 0.000000
0.562363 0.588146 0.000000
0.614060 0.584201 0.000000
0.666313 0.579452 0.000000
0.720020 0.573689 0.000000
0.775954 0.566710 0.000000
0.834959 0.558274 0.000000
0.898042 0.548083 0.000000
0.960857 0.536444 0.000000
0.992165 0.528206 0.006561
0.993604 0.525076 0.102059
0.994912 0.522577 0.186496
0.996225 0.519757 0.269158
0.996975 0.509347 0.424120
0.997838 0.509365 0.471461
0.998304 0.511266 0.498089
0.998605 0.513716 0.517534
0.998840 0.516489 0.533008
0.999044 0.519584 0.545976
0.000000 0.614098 0.000000
0.000000 0.615253 0.000000
0.000000 0.616333 0.000000
0.000000 0.617330 0.000000
0.000000 0.637925 0.000000
0.000000 0.660439 0.000000
0.000000 0.680825 0.000000
0.000000 0.692882 0.000000
0.000000 0.701683 0.000000
0.003105 0.707750 0.000000
0.046385 0.709939 0.000000
0.116862 0.704036 0.000000
0.344620 0.651469 0.000000
0.427976 0.641210 0.000000
0.490232 0.635841 0.000000
0.546188 0.631380 0.000000
0.599824 0.626859 0.000000
0.652988 0.621840 0.000000
0.706829 0.616037 0.000000
0.762188 0.609229 0.000000
0.819846 0.601193 0.000000
0.880620 0.591689 0.000000
0.941721 0.580761 0.000000
0.991803 0.569949 0.000000
0.993352 0.565782 0.080217
0.994688 0.562897 0.168402
0.995896 0.560628 0.245924
0.997089 0.558195 0.320551
0.997615 0.548848 0.461652
0.998598 0.548235 0.511665
0.999060 0.550007 0.537351
0.999351 0.552462 0.555816
0.999526 0.555382 0.570598
0.000000 0.649915 0.002942
0.000000 0.650955 0.000000
0.000000 0.651914 0.000000
0.000000 0.652789 0.000000
0.000000 0.673241 0.000000
0.000000 0.695573 0.000000
0.000000 0.715715 0.000000
0.000000 0.733817 0.000000
0.000000 0.744052 0.000000
0.000000 0.751757 0.000000
0.010946 0.756751 0.000000
0.059090 0.757487 0.000000
0.141555 0.748109 0.000000
0.379834 0.691798 0.000000
0.460321 0.681010 0.000000
0.523134 0.674511 0.000000
0.580218 0.668965 0.000000
0.635180 0.663410 0.000000
0.689780 0.657382 0.000000
0.745124 0.650578 0.000000
0.802041 0.642763 0.000000
0.861314 0.633705 0.000000
0.921827 0.623256 0.000000
0.982830 0.611515 0.000000
0.993044 0.604881 0.053180
0.994484 0.601033 0.150591
0.995724 0.598375 0.231870
0.996840 0.596315 0.303033
0.997930 0.594208 0.370756
0.999547 0.586024 0.493895
0.999342 0.584913 0.550105
0.999540 0.586779 0.574673
0.999554 0.589451 0.592393
0.000000 0.683795 0.007300
0.000000 0.684728 0.000000
0.000000 0.685575 0.000000
0.000000 0.686344 0.000000
0.000000 0.706671 0.000000
0.000000 0.728854 0.000000
0.000000 0.748796 0.000000
0.000000 0.766616 0.000000
0.000000 0.783872 0.000000
0.000000 0.792844 0.000000
0.000000 0.799745 0.000000
0.018695 0.803815 0.000000
0.071834 0.803154 0.000000
0.168315 0.788994 0.000000
0.411412 0.729869 0.000000
0.490508 0.718530 0.000000
0.554096 0.711050 0.000000
0.612349 0.704518 0.000000
0.668610 0.697996 0.000000
0.724592 0.691002 0.000000
0.781354 0.683233 0.000000
0.839737 0.674439 0.000000
0.900482 0.664388 0.000000
0.959302 0.653086 0.000000
0.992616 0.643111 0.015708
0.994224 0.637718 0.127937
0.995561 0.634174 0.217697
0.996712 0.631738 0.292489
0.997744 0.629893 0.357785
0.998743 0.628100 0.419434
0.999560 0.623921 0.503032
0.999558 0.619870 0.586805
0.999578 0.621943 0.610435
0.000000 0.715834 0.011424
0.000000 0.716664 0.003202
0.000000 0.717413 0.000000
0.000000 0.718085 0.000000
0.000000 0.738306 0.000000
0.000000 0.760363 0.000000
0.000000 0.780139 0.000000
0.000000 0.797738 0.000000
0.000000 0.814679 0.000000
0.000000 0.831290 0.000000
0.000000 0.839620 0.000000
0.000000 0.845881 0.000000
0.026325 0.849138 0.000000
0.084403 0.846393 0.000000
0.198081 0.825739 0.000000
0.440249 0.765925 0.000000
0.518817 0.753993 0.000000
0.583291 0.745611 0.000000
0.642698 0.738154 0.000000
0.700231 0.730699 0.000000
0.757513 0.722775 0.000000
0.815613 0.714066 0.000000
0.875360 0.704324 0.000000
0.934639 0.693276 0.000000
0.991993 0.681306 0.000000
0.993853 0.673531 0.095765
0.995346 0.668579 0.199025
0.996586 0.665336 0.281538
0.997651 0.663139 0.350227
0.998607 0.661535 0.410131
0.999537 0.660022 0.466983
0.999591 0.657364 0.536790
0.999596 0.653231 0.621950
0.000000 0.746065 0.015332
0.000000 0.746803 0.008026
0.000000 0.747461 0.001504
0.000000 0.748048 0.000000
0.000000 0.768176 0.000000
0.000000 0.790127 0.000000
0.000000 0.809766 0.000000
0.000000 0.827184 0.000000
0.000000 0.843881 0.000000
0.000000 0.860483 0.000000
0.000000 0.876721 0.000000
0.000000 0.884579 0.000000
0.000000 0.890311 0.000000
0.033675 0.892098 0.000000
0.096550 0.886545 0.000000
0.234393 0.857743 0.000000
0.466858 0.800063 0.000000
0.545375 0.787507 0.000000
0.610784 0.778266 0.000000
0.671328 0.769916 0.000000
0.730051 0.761564 0.000000
0.788556 0.752734 0.000000
0.847903 0.743111 0.000000
0.908279 0.732379 0.000000
0.966817 0.720433 0.000000
0.993299 0.709184 0.047592
0.995023 0.702071 0.171581
0.996407 0.697549 0.266346
0.997556 0.694617 0.342058
0.998544 0.692688 0.405093
0.999454 0.691214 0.461612
0.999579 0.690392 0.513029
0.999624 0.688680 0.574076
0.000000 0.774497 0.019000
0.000000 0.775147 0.012555
0.000000 0.775727 0.006815
0.000000 0.776237 0.001755
0.000000 0.796286 0.000000
0.000000 0.818146 0.000000
0.000000 0.837669 0.000000
0.000000 0.854940 0.000000
0.000000 0.871438 0.000000
0.000000 0.887772 0.000000
0.000000 0.903956 0.000000
0.000000 0.918681 0.000000
0.000000 0.925593 0.000000
0.001460 0.929776 0.000000
0.046750 0.929431 0.000000
0.112614 0.922170 0.000000
0.329475 0.869703 0.000000
0.491475 0.832331 0.000000
0.570255 0.819115 0.000000
0.636616 0.809036 0.000000
0.698247 0.799820 0.000000
0.758093 0.790592 0.000000
0.817737 0.780880 0.000000
0.878236 0.770372 0.000000
0.937504 0.758510 0.000000
0.992461 0.745815 0.000000
0.994529 0.735264 0.129532
0.996125 0.728783 0.243076
0.997407 0.724692 0.329882
0.998472 0.722098 0.399276
0.999438 0.720168 0.460156
0.999582 0.719484 0.510143
0.999616 0.719281 0.556280
0.000000 0.801123 0.022448
0.000000 0.801698 0.016757
0.000000 0.802204 0.011742
0.000000 0.802650 0.007321
0.000000 0.822629 0.005033
0.000000 0.844411 0.002577
0.000000 0.863837 0.000000
0.000000 0.880983 0.000000
0.000000 0.897322 0.000000
0.000000 0.912357 0.000000
0.000000 0.927284 0.000000
0.000000 0.942548 0.000000
0.000000 0.957174 0.000000
0.000000 0.963146 0.000000
0.013089 0.965587 0.000000
0.060423 0.963675 0.000000
0.130132 0.954515 0.000000
0.375201 0.893869 0.000000
0.514316 0.862718 0.000000
0.593514 0.848823 0.000000
0.660812 0.837922 0.000000
0.723465 0.827860 0.000000
0.784350 0.817779 0.000000
0.845047 0.807212 0.000000
0.906175 0.795737 0.000000
0.964824 0.782914 0.000000
0.993769 0.769181 0.063000
0.995683 0.759584 0.206473
0.997160 0.753722 0.310248
0.998347 0.750082 0.389650
0.999357 0.747729 0.454587
0.999587 0.746688 0.507851
0.999621 0.746361 0.555223
0.000000 0.825949 0.025643
0.000000 0.826453 0.020645
0.000000 0.826896 0.016263
0.000000 0.827283 0.012422
0.000000 0.847203 0.010724
0.000000 0.868917 0.008932
0.000000 0.888260 0.006074
0.000000 0.904876 0.002943
0.000000 0.919776 0.000475
0.000000 0.934438 0.000000
0.000000 0.949153 0.000000
0.000000 0.964128 0.000000
0.000000 0.979543 0.000000
0.000000 0.991972 0.000000
0.000922 0.992191 0.000000
0.040102 0.992300 0.000000
0.081392 0.992252 0.000000
0.146671 0.984736 0.000000
0.407518 0.918965 0.000000
0.535453 0.891231 0.000000
0.615182 0.876634 0.000000
0.683374 0.864925 0.000000
0.746982 0.854036 0.000000
0.808825 0.843128 0.000000
0.870484 0.831737 0.000000
0.930855 0.818993 0.000000
0.990269 0.805608 0.000000
0.994992 0.790884 0.147571
0.996761 0.782205 0.278394
0.998129 0.776961 0.373142
0.999292 0.773386 0.449742
0.999594 0.771888 0.507325
0.999628 0.771352 0.556755
0.000000 0.848990 0.028603
0.000000 0.849431 0.024232
0.000000 0.849818 0.020405
0.000000 0.850154 0.017071
0.000000 0.870021 0.015895
0.000000 0.891678 0.014673
0.000000 0.910069 0.014531
0.000000 0.925660 0.014432
0.000000 0.940459 0.013038
0.000000 0.954991 0.010223
0.000000 0.969536 0.005721
0.000000 0.984287 0.000000
0.000000 0.992221 0.007005
0.013072 0.992801 0.029282
0.049964 0.993291 0.045936
0.086362 0.993491 0.057355
0.123018 0.993594 0.061551
0.161818 0.993550 0.054560
0.207807 0.993204 0.023628
0.434976 0.942955 0.000000
0.556671 0.916702 0.000000
0.635478 0.902397 0.000000
0.704338 0.890052 0.000000
0.768818 0.878360 0.000000
0.831536 0.866655 0.000000
0.894080 0.854477 0.000000
0.953741 0.840543 0.000000
0.993903 0.824531 0.048683
0.996128 0.810993 0.226295
0.997766 0.803203 0.345470
0.999034 0.798600 0.431939
0.999597 0.795925 0.500415
0.999634 0.794832 0.555355
0.000000 0.870293 0.031331
0.000000 0.870678 0.027516
0.000000 0.871014 0.024181
0.000000 0.871306 0.021293
0.000000 0.891127 0.020566
0.000000 0.911710 0.022162
0.000000 0.929377 0.024138
0.000000 0.944898 0.024762
0.000000 0.959613 0.024253
0.000000 0.974038 0.022562
0.000000 0.988447 0.019490
0.000000 0.992380 0.039846
0.023344 0.992966 0.067315
0.061841 0.993536 0.092145
0.097488 0.994063 0.112095
0.131660 0.994512 0.127604
0.165712 0.994701 0.138613
0.200139 0.994801 0.143078
0.236606 0.994762 0.137143
0.279931 0.994431 0.108409
0.458827 0.965741 0.000000
0.576997 0.939872 0.000000
0.655718 0.924981 0.000000
0.724279 0.912570 0.000000
0.789020 0.900827 0.000000
0.852533 0.888405 0.000000
0.915015 0.874972 0.000000
0.974900 0.860453 0.000000
0.995126 0.841777 0.138045
0.997184 0.829600 0.299444
0.998701 0.822698 0.407954
0.999600 0.818328 0.492225
0.999638 0.816884 0.550646
0.000000 0.889939 0.033845
0.000000 0.890275 0.030513
0.000000 0.890567 0.027624
0.000000 0.890820 0.025117
0.000000 0.909749 0.026703
0.000000 0.929579 0.030333
0.000000 0.947198 0.032806
0.000000 0.962663 0.034031
0.000000 0.977306 0.034272
0.000000 0.991642 0.033512
0.000000 0.992507 0.062800
0.030539 0.993081 0.092185
0.069682 0.993662 0.121107
0.107586 0.994223 0.147762
0.142461 0.994740 0.170087
0.175468 0.995228 0.188641
0.207456 0.995646 0.203457
0.239455 0.995827 0.214263
0.271818 0.995925 0.219061
0.306038 0.995892 0.214191
0.346721 0.995577 0.187692
0.479957 0.987156 0.000000
