app/luts/clog2_to_rec709.cube
# Gamut : Cinema Gamut to BT.709
# Gamma : Canon Log to Wide DR
# Range : Full in / Full out
# Version : 1.1 2016/10/27
# Copyright(c) 2016 Canon Inc. All Rights Reserved.
LUT_3D_SIZE 5
# LUT_3D_INPUT_RANGE 0.0 1.0
0.000000 0.000000 0.000000
0.239415 0.000000 0.000000
0.599569 0.000000 0.000000
0.819133 0.000000 0.049570
0.939670 0.000000 0.087966
0.000000 0.242506 0.000000
0.233136 0.248373 0.000000
0.602796 0.250193 0.000000
0.993378 0.177403 0.204923
0.994759 0.207753 0.305748
0.000000 0.614098 0.000000
0.000000 0.701683 0.000000
0.599824 0.626859 0.000000
0.993352 0.565782 0.080217
0.999526 0.555382 0.570598
0.000000 0.848990 0.028603
0.000000 0.940459 0.013038
0.123018 0.993594 0.061551
0.831536 0.866655 0.000000
0.999634 0.794832 0.555355
0.000000 0.978213 0.060316
0.148612 0.994851 0.231464
0.429369 0.999026 0.469923
0.622882 0.999696 0.594115
0.958164 0.995766 0.051315
0.000000 0.000000 0.206042
0.251012 0.000000 0.226830
0.591027 0.000000 0.332153
0.834014 0.000000 0.317301
0.990364 0.000000 0.180830
0.000000 0.246392 0.229926
0.244882 0.244882 0.244882
0.913694 0.138035 0.440436
0.993648 0.183591 0.454382
0.995084 0.232348 0.372713
0.000000 0.634025 0.112534
0.000000 0.733745 0.042108
0.625002 0.650826 0.000000
0.995496 0.582623 0.218627
0.999553 0.582236 0.616055
0.000000 0.876321 0.069411
0.000000 0.965179 0.062766
0.186757 0.995158 0.169925
0.855679 0.890929 0.000000
0.999686 0.819600 0.621399
0.000000 0.992530 0.109873
0.224429 0.995982 0.308562
0.506789 0.999627 0.547547
0.699199 0.999760 0.680308
0.970210 0.998173 0.303544
0.000000 0.000000 0.496027
0.297430 0.000000 0.465932
0.632470 0.000000 0.585901
0.887034 0.000000 0.536961
0.990621 0.000000 0.420853
0.000000 0.216589 0.900828
0.479485 0.137813 0.990461
0.991520 0.102889 0.935196
0.994096 0.198716 0.679018
0.995742 0.249817 0.573516
0.000000 0.623195 0.595592
0.000000 0.707244 0.680404
0.620664 0.620664 0.620664
0.993181 0.577297 0.653993
0.999580 0.606413 0.752266
0.000000 0.897183 0.238543
0.000000 0.982477 0.252668
0.239561 0.996224 0.379655
0.883752 0.919382 0.000000
0.999761 0.847895 0.716677
0.079001 0.993835 0.216450
0.313104 0.997305 0.410125
0.600411 0.999699 0.646940
0.790650 0.999838 0.786031
0.984102 0.999827 0.622037
0.000941 0.000000 0.659531
0.198616 0.000000 0.982040
0.611268 0.000000 0.886275
0.874143 0.000000 0.812861
0.990711 0.000000 0.616717
0.161434 0.163567 0.992435
0.306495 0.212980 0.993189
0.733036 0.197835 0.993752
0.994628 0.195898 0.943308
0.995905 0.258744 0.722541
0.050783 0.572226 0.992588
0.224646 0.612865 0.995452
0.686135 0.587420 0.995137
0.999284 0.567439 0.971617
0.999603 0.620533 0.850270
0.000000 0.861845 0.826535
0.000000 0.942695 0.906125
0.125831 0.994855 0.966048
0.858608 0.858608 0.858608
0.999405 0.855497 0.880372
0.093976 0.994132 0.407360
0.340053 0.997734 0.564467
0.643476 0.999735 0.757714
0.841107 0.999881 0.874973
0.992637 0.999924 0.833892
0.015379 0.000000 0.754739
0.111135 0.000000 0.990797
0.410065 0.000000 0.991251
0.701361 0.000000 0.991038
0.990450 0.000000 0.919910
0.220694 0.159788 0.993094
0.308610 0.226174 0.993994
0.486642 0.284856 0.994993
0.782755 0.267459 0.996038
0.995763 0.249856 0.948723
0.459972 0.464023 0.997253
0.542930 0.531849 0.998486
0.662544 0.607891 0.999546
0.874763 0.615534 0.999582
0.999621 0.621786 0.975531
0.370925 0.728367 0.997939
0.504712 0.781043 0.999571
0.672826 0.842761 0.999714
0.882478 0.851178 0.999641
0.999841 0.858169 0.990339
0.000000 0.992566 0.948870
0.254426 0.996646 0.965106
0.612833 0.999729 0.985730
0.847117 0.999893 0.994880
0.996331 0.996331 0.996331
